!!!COM: Béla Bartók
!!!OTL: [T333_Bar-w26p38h22m1-h24m6]
**kern	**kern	**dynam	**kern	**dynam
*part2	*part2	*part2	*part1	*part1
*staff3	*staff2	*staff2/3	*staff1	*staff1
*I"Piano	*I"Piano	*I"Piano	*I"Violin	*I"Violin
*I'Pno	*I'Pno	*	*I'Vln.	*I'Vln.
*clefF4	*clefF4	*	*clefG2	*
*k[]	*k[]	*	*k[]	*
*C:	*C:	*	*C:	*
*M2/4	*M2/4	*	*M2/4	*
=1	=1	=1	=1	=1
!	!	!	!LO:TX:t=Poco sostenuto [quarter]=86	!
2ryy	8r	f	2r	.
.	(8FF#X^L 8AA^< 8Dn^< 8E#X^<	.	.	.
.	8FFF<#X 8AAA< 8DD<n 8EE<#X)	.	.	.
.	8FF#J 8AA 8D 8E#	.	.	.
=2	=2	=2	=2	=2
2ryy	8FFF<#XL 8AAA< 8DD<n 8EE<#X	.	2r	.
.	8FF#X 8AA 8Dn 8E#X	.	.	.
.	8FFF#< 8AAA< 8DD< 8EE#<	.	.	.
.	8FF#J 8AA 8D 8E#	.	.	.
=3	=3	=3	=3	=3
2ryy	(8FF#X^L 8AA^< 8Dn^< 8E#X^<	.	2r	.
.	8FFF#X< 8AAA< 8DD<n 8EE#<X)	.	.	.
!	!	!LO:HP:t=dim.	!	!
.	8FF# 8AA 8D 8E#	>	.	.
.	8FF#J 8AA 8D 8E#	.	.	.
=4	=4	=4	=4	=4
!	!	!	!LO:TX:a:t=accel.	!
2ryy	8FFF#X<L 8AAA< 8DDn< 8EE#X<	.	2r	.
.	8FF#X 8AA 8Dn 8E#X	.	.	.
.	8FFF#< 8AAA< 8DD< 8EE#<	.	.	.
.	8FF#J 8AA 8D 8E#	.	.	.
=5	=5	=5	=5	=5
!	!	!	!LO:TX:t=al	!
2ryy	(8FF#X^L 8AA^< 8Dn^< 8E#X^<	.	2r	.
.	8FFF#X< 8AAA< 8DD<n 8EE#<X)	.	.	.
.	8FF# 8AA 8D 8E#	.	.	.
.	8FF#J 8AA 8D 8E#	.	.	.
=6	=6	=6	=6	=6
!	!	!LO:DY:t=%s secco	!	!
2ryy	8FFF#X<^<L 8AAA<^< 8DDn<^< 8EE#X<^<	p	8r	.
.	8FF#X 8AA 8Dn 8E#X	.	(16BLL	p
.	.	.	16c#XJJ)	.
.	8FFF#<^< 8AAA<^< 8DD<^< 8EE#<^<	.	(16c#LL	.
.	.	.	16d)	.
.	8FF#J 8AA 8D 8E#	.	(16d	.
.	.	.	16eJJ)	.
=7	=7	=7	=7	=7
!	!	!	!LO:TX:t=Tempo I. ([quarter]=144)	!
2ryy	(8FF#XL 8AA 8Dn 8E#X	.	16fLL	.
.	.	.	16f	.
.	(8FFF#X<^< 8AAA<^< 8DDn<^< 8EE#<X^<)	.	(16g	.
.	.	.	16eJJ)	.
.	8FF# 8AA 8D 8E#	.	(16fLL	.
.	.	.	16e)	.
.	8FF#J 8AA 8D 8E#	.	16e	.
.	.	.	16gJJ	.
=8	=8	=8	=8	=8
2ryy	8FFF#X<L^< 8AAA<^< 8DDn<^< 8EE#<X^<	.	16fLL	.
.	.	.	16f	.
.	8FF#X 8AA 8Dn 8E#X	.	(16g	.
.	.	.	16eJJ)	.
.	8FFF#<^< 8AAA<^< 8DD<^< 8EE#<^<	.	(16fLL	<
.	.	.	16e)	.
.	8FF#J 8AA 8D 8E#	.	16e	.
.	.	.	16gJJ	.
=9	=9	=9	=9	=9
2ryy	(8FF#XL 8AA 8Dn 8E#X	.	(16dLL	.
.	.	.	16c#X)	.
.	8FFF#X<^< 8AAA<^< 8DDn<^< 8EE#<X^<)	.	16c#	.
.	.	.	16eJJ	.
!	!	!LO:DY:t=sempre %s	!	!
.	8FF# 8AA 8D 8E#	p	([4B	.
.	8FF#J 8AA 8D 8E#	.	.	.
=10	=10	=10	=10	=10
2ryy	8FFF#X<L^< 8AAA<^< 8DDn<^< 8EE#X<^<	.	4B]	.
.	8FF#X 8AA 8Dn 8E#X	.	.	.
.	8FFF#<^< 8AAA<^< 8DD<^< 8EE#<^<	.	8a#X^^)	f
.	8FF#J 8AA 8D 8E#	.	8r	.
=11	=11	=11	=11	=11
!	!	!	!LO:TX:t=Meno vivo ([quarter]=86)	!
2ryy	8r	f	2r	.
.	(8FFF#X<L^< 8DDn<^< 8EE#X<^<	.	.	.
.	8AAn 8BB#X 8E#X 8G#X)	.	.	.
.	8FFF#<J 8DD< 8EE#<	.	.	.
=12	=12	=12	=12	=12
!	!	!LO:HP:t=dim.	!LO:TX:a:t=accel.	!
2ryy	(8AA^>L 8BB#X 8E#X 8G#X	>	2r	.
.	8FFF#< 8DDn< 8EE#<)	.	.	.
.	8AA 8BB# 8E# 8G#	.	.	.
.	8AAJ 8BB# 8E# 8G#	.	.	.
=13	=13	=13	=13	=13
2ryy	8FFF#<L^< 8DDn<^< 8EE#<^<	p	8r	.
.	8AAn 8BB#X 8E#X 8G#X	.	(16BLL	p
!	!	!	!LO:TX:a:t=al	!
.	.	.	16c#XJJ)	.
.	8AA 8BB# 8E# 8G#	.	(16dLL	.
.	.	.	16e)	.
.	8FFF#<J^< 8DD<^< 8EE#<^<	.	(16f	.
.	.	.	16gJJ)	.
=14	=14	=14	=14	=14
!	!	!	!LO:TX:t=[quarter]=144	!
2ryy	8AAnL 8BB#X 8E#X 8G#X	.	16a-XLL	.
.	.	.	16a-	.
.	8AA 8BB# 8E# 8G#	.	(16b-X	.
.	.	.	16gJJ)	.
.	8FFF#<^< 8DDn<^< 8EE#<^<	.	(16a-LL	.
.	.	.	16g)	.
.	8AAJ 8BB# 8E# 8G#	.	16g	.
.	.	.	16b-JJ	.
=15	=15	=15	=15	=15
2ryy	8FFF#<L^< 8DDn<^< 8EE#<^<	.	(16a-XLL	.
.	.	.	16g)	.
.	8AAn 8BB#X 8E#X 8G#X	.	16g	.
.	.	.	16b-XJJ	.
.	8AA 8BB# 8E# 8G#	.	16fLL	.
.	.	.	16f	.
.	8FFF#<J^< 8DD<^< 8EE#<^<	.	(16g	.
.	.	.	16eJJ)	.
=16	=16	=16	=16	=16
2ryy	8AAnL 8BB#X 8E#X 8G#X	.	(16fLL	.
.	.	.	16e)	.
.	8AA 8BB# 8E# 8G#	.	16e	.
.	.	.	16gJJ	.
!	!	!	!LO:TX:b:i:t=cresc.	!
.	8FFF#<^< 8DDn<^< 8EE#<^<	.	(16dLL	.
.	.	.	16c#X)	.
.	8AAJ 8BB# 8E# 8G#	.	16c#	.
.	.	.	16eJJ	.
=17	=17	=17	=17	=17
2ryy	8FFF#<^<L 8DDn<^< 8EE#<^<	.	(16BLL	.
.	.	.	16c#X)	.
!	!	!LO:DY:t=sempre %s	!	!
.	8AAn 8BB#X 8E#X 8G#X	p	16c#	.
.	.	.	16AJJ	.
.	8AA 8BB# 8E# 8G#	.	([4B	.
.	8FFF#<^<J 8DD<^< 8EE#<^<	.	.	.
=18	=18	=18	=18	=18
!	!	!	!LO:TX:t=P:problem:glissando	!
2ryy	8AAnL 8BB#X 8E#X 8G#X	.	4BH]	.
.	8AA 8BB# 8E# 8G#	.	.	.
.	8FFF#<^< 8DDn<^< 8EE#<^<	.	8cc^^h)	f
.	8AAJ 8BB# 8E# 8G#	.	8r	.
=19	=19	=19	=19	=19
!	!	!	!LO:TX:t=Meno vivo, [quarter]=92	!
!	!	!LO:DY:t=poco %s	!	!
8r	8r	f	2r	.
(8FF#X^>L 8AAn	8CL 8E-X 8Fn 8A-X 8Bn	>	.	.
8FFF#X 8AAA)	8r	.	.	.
8FF#J 8AA	8CJ 8E- 8F 8A- 8B	.	.	.
=20	=20	=20	=20	=20
!	!	!	!LO:TX:a:t=accel.	!
8FFF#X^L 8AAA	4r	.	8r	.
8FF#X 8AA	.	.	(16BLL	p
.	.	.	16dJJ)	.
8r	8C 8E-X 8Fn 8A-X 8Bn	p ]	(16eLL	.
!	!	!	!LO:TX:a:t=al	!
.	.	.	16g)	.
8FFF#^J 8AAA	8r	.	(16g#X	.
.	.	.	16a#XJJ)	.
=21	=21	=21	=21	=21
!	!	!	!LO:TX:a:B:t=Tempo I	!
!	!	!	!LO:TX:b:B:t=Tempo I	!
8FF#XL 8AAn	8CL 8E-X 8Fn 8A-X 8Bn	.	16bLL	.
.	.	.	16b	.
8FFF#X^ 8AAA	8r	.	(16cc#X	.
.	.	.	16a#XJJ)	.
8FF# 8AA	8C 8E- 8F 8A- 8B	.	(16bLL	.
.	.	.	16a#)	.
8FF#J 8AA	8CJ 8E- 8F 8A- 8B	.	16a#	.
.	.	.	16f##XJJ	.
=22	=22	=22	=22	=22
8FFF#X^L 8AAA	4r	.	16bLL	.
.	.	.	16b	.
8FF#X 8AA	.	.	(16cc#X	.
.	.	.	16a#XJJ)	.
8r	8C 8E-X 8Fn 8A-X 8Bn	.	(16bLL	.
.	.	.	16a#)	.
8FFF#^J 8AAA	8r	.	16a#	.
.	.	.	16f##XJJ	.
=23	=23	=23	=23	=23
8FF#XL 8AAn	8CL 8E-X 8Fn 8A-X 8Bn	.	(16bLL	<
.	.	.	16a#X)	.
8FFF#X^ 8AAA	8r	.	16a#	.
.	.	.	16f##XJJ	.
8FF# 8AA	8C 8E- 8Fn 8A- 8Bn	.	(16bLL	.
.	.	.	16a#)	.
8FF#J 8AA	8CJ 8E- 8Fn 8A- 8Bn	.	16a#	.
.	.	.	16fJJ	.
=24	=24	=24	=24	=24
8FFF#X^L 8AAA	4r	.	16eLL	.
.	.	.	16e	.
8FF#X 8AA	.	.	(16f#X	.
.	.	.	16dJJ)	.
!	!	!	!	!
8r	8C 8E-X 8Fn 8A-X 8Bn	<	(16eLL	.
.	.	.	16c#X)	.
8FFF#^J 8AAA	8r	.	16c#	.
.	.	.	16AJJ	.
=||	=||	=||	=||	=||
*-	*-	*-	*-	*-
!!!system-decoration: s1{(s2,s3)}
!!!RDF**kern: > = above
!!!RDF**kern: < = below
!!!EED: Gabriella Vici
!!!EEV: 2022/02/16
